X: 7848
T: Coming To Mind
R: reel
M: 4/4
K: Dmajor
FAAF ABde|~f3e d3B|dBAF ABAF|EGFE DB~B2|
FAAF ABde|~f3e d3B|dBAF ABde|1 ~f2eg fdd2:|2 ~f2eg fdde||
fedf edB2|dfed BAF2|FAAF ABde|~f2de fee2|
fedf edB2|dfed BAF2|FAAF ABde|1 ~f2eg fdde:|2 ~f2eg fdd2||

